X:1
T:Title
%%score { ( 1 4 ) | ( 2 3 ) }
L:1/8
M:4/4
K:G
V:1 treble nm="Grand Piano"
V:4 treble 
V:2 treble 
V:3 treble 
V:1
 z4 z2[Q:1/4=100] D2 | G2 G2 BAGA | B2 d2 d2 B2 | [FA]2 [FA]2 [Fd]2 [Ac]2 | B6 D2 | G2 G2 BAGA | %6
 [DGB]2 [DBd]2 [DBd]2 [EAc]2 | [DGB]2 [CFA]2 [B,G]2 [A,DF]2 |[M:3/4] [B,DG]6 |[M:1/4] G2 | %10
[M:4/4] B2 G>G G2 G>A | B6 z2 | [FA]2 F>F F2 [FA]>[GB] | [Ac]6 z2 | %14
 [DGB]2 [DGB]>[DGB] [DFA] [DFA]2 [CFA] | [B,G]2 [B,G]>[B,G] [EGc] [EGc]2 [EGc] | %16
 [DGB]2 [CFA]2 [B,G]2 [A,DF]2 |[M:3/4] [B,DG]6 |] %18
V:2
 z4 z2 [G,B,]2 | [G,B,D]2 [G,B,D]2 DC[G,D]-[G,CD] | [G,DG]2 [G,B,G]2 [G,B,G]2 [G,DG]2 | %3
 [D,D]2 [D,D]2 [D,A,]2 [D,D]2 | [G,DG]6 [G,B,]2 | [G,B,D]2 [G,B,D]2 DC[K:bass][G,D]-[G,CD] | %6
 G,2 G,2 G,2 C,2 | D,2 D,2 D,2 D,2 |[M:3/4] G,,6 |[M:1/4][K:treble] [G,B,D]2 | %10
[M:4/4] [G,DG]2 [G,B,D]>[G,B,D] [G,B,D]2 [G,B,D]>[G,CD] | [G,D]2 z2 z4[K:bass] | %12
 [D,C]2 [D,A,D]>[D,A,D] [D,A,D]2 [D,D]>[D,D] | [D,D]2 D,>D, D,2 D,2 | G,2 G,>G, D, D,2 D, | %15
 E,2 E,>E, C, C,2 C, | D,2 D,2 D,2 D,2 |[M:3/4] G,,6 |] %18
V:3
 x8 | z4 G,2 .B,2 | x8 | x8 | x8 | z4 G,2[K:bass] .B,2 | x8 | x8 |[M:3/4] x6 | %9
[M:1/4][K:treble] x2 |[M:4/4] x8 | G2- [G,G-]>[G,G-] [G,G]2[K:bass] [G,B,]2 | x8 | x8 | x8 | x8 | %16
 x8 |[M:3/4] x6 |] %18
V:4
 x8 | x8 | x8 | x8 | x8 | x8 | x8 | x8 |[M:3/4] x6 |[M:1/4] x2 |[M:4/4] x8 | z2 D>D D2 G2 | x8 | %13
 z2 D>D D2 [DFd]2 | x8 | x8 | x8 |[M:3/4] x6 |] %18

